docs/img/game/alpha-1-9-3/gear/cosmetic/face/lipstick_1.svg

<svg xmlns="http://www.w3.org/2000/svg" width="150" height="250" viewBox="0 0 150 250"><g id="Layer_5"><path fill-rule="evenodd" clip-rule="evenodd" fill="#A000A0" d="M24.9 226.8c1 0 1.8-.5 1.8-1.1 0-.6-.8-1.1-1.8-1.1s-1.8.5-1.8 1.1c0 .6.8 1.1 1.8 1.1z"/><path fill-rule="evenodd" clip-rule="evenodd" fill="#A000A0" d="M74.9 226.2c1.5 0 2.7-.2 2.7-.5s-1.2-.5-2.7-.5c-1.5 0-2.7.2-2.7.5 0 .2 1.2.5 2.7.5z"/><path fill-rule="evenodd" clip-rule="evenodd" fill="#A000A0" d="M124.9 227.8c1 0 1.8-1 1.8-2.1s-.8-2.1-1.8-2.1-1.8 1-1.8 2.1.8 2.1 1.8 2.1z"/><path fill-rule="evenodd" clip-rule="evenodd" fill="#A000A0" d="M74.9 25.6c1.5 0 2.7-.2 2.7-.5s-1.2-.5-2.7-.5c-1.5 0-2.7.2-2.7.5s1.2.5 2.7.5z"/><path fill-rule="evenodd" clip-rule="evenodd" fill="#A000A0" d="M24.9 25.6c1.5 0 2.7-.2 2.7-.5s-1.2-.5-2.7-.5c-1.5 0-2.7.2-2.7.5s1.2.5 2.7.5z"/><path fill-rule="evenodd" clip-rule="evenodd" fill="#A000A0" d="M124.9 25.6c1.5 0 2.7-.2 2.7-.5s-1.2-.5-2.7-.5c-1.5 0-2.7.2-2.7.5s1.2.5 2.7.5z"/><path fill-rule="evenodd" clip-rule="evenodd" fill="#A000A0" d="M18.1 176.6c.8-.1.8-1.7-.1-1.5-1 .2-2.7.7-2.6 1 .1.2 1.3.7 2.7.5z"/><path fill-rule="evenodd" clip-rule="evenodd" fill="#A000A0" d="M68.1 176.6c.8-.1.8-1.7-.1-1.5-1 .2-2.7.7-2.6 1 .1.2 1.3.7 2.7.5z"/><path fill-rule="evenodd" clip-rule="evenodd" fill="#A000A0" d="M118.1 176.6c.8-.1.8-1.7-.1-1.5-1 .2-2.7.7-2.6 1 .1.2 1.3.7 2.7.5z"/><path fill-rule="evenodd" clip-rule="evenodd" fill="#A000A0" d="M132.3 126.6c-.8-.1-.8-1.7.1-1.5 1 .2 2.7.7 2.6 1-.1.2-1.2.7-2.7.5z"/><path fill-rule="evenodd" clip-rule="evenodd" fill="#A000A0" d="M82.3 126.6c-.8-.1-.8-1.7.1-1.5 1 .2 2.7.7 2.6 1-.1.2-1.2.7-2.7.5z"/><path fill-rule="evenodd" clip-rule="evenodd" fill="#A000A0" d="M32.3 126.6c-.8-.1-.8-1.7.1-1.5 1 .2 2.7.7 2.6 1-.1.2-1.2.7-2.7.5z"/></g></svg>

<?xml version="1.0" encoding="utf-8"?>
<!-- Generator: Adobe Illustrator 16.0.0, SVG Export Plug-In . SVG Version: 6.00 Build 0)  -->
<!DOCTYPE svg PUBLIC "-//W3C//DTD SVG 1.1//EN" "http://www.w3.org/Graphics/SVG/1.1/DTD/svg11.dtd">
<svg version="1.1" xmlns="http://www.w3.org/2000/svg" xmlns:xlink="http://www.w3.org/1999/xlink" x="0px" y="0px" width="150px"
	 height="250px" viewBox="0 0 150 250" enable-background="new 0 0 150 250" xml:space="preserve">
<g id="Layer_1" display="none">
	<rect x="-425" y="-375" display="inline" fill="#5AFF89" width="50" height="50"/>
</g>
<g id="Layer_2" display="none">
	
		<image display="inline" overflow="visible" width="1897" height="735" xlink:href="../../../color_palette.png"  transform="matrix(0.4639 0 0 0.4639 -348.5581 171.9121)">
	</image>
</g>
<g id="Layer_5">
	<path fill-rule="evenodd" clip-rule="evenodd" fill="#A000A0" d="M24.9,226.8c1,0,1.8-0.5,1.8-1.1c0-0.6-0.8-1.1-1.8-1.1
		c-1,0-1.8,0.5-1.8,1.1C23.1,226.3,23.9,226.8,24.9,226.8z"/>
	<path fill-rule="evenodd" clip-rule="evenodd" fill="#A000A0" d="M74.9,226.2c1.5,0,2.7-0.2,2.7-0.5c0-0.3-1.2-0.5-2.7-0.5
		c-1.5,0-2.7,0.2-2.7,0.5C72.2,225.9,73.4,226.2,74.9,226.2z"/>
	<path fill-rule="evenodd" clip-rule="evenodd" fill="#A000A0" d="M124.9,227.8c1,0,1.8-1,1.8-2.1s-0.8-2.1-1.8-2.1s-1.8,1-1.8,2.1
		S123.9,227.8,124.9,227.8z"/>
	<path fill-rule="evenodd" clip-rule="evenodd" fill="#A000A0" d="M74.9,25.6c1.5,0,2.7-0.2,2.7-0.5c0-0.3-1.2-0.5-2.7-0.5
		c-1.5,0-2.7,0.2-2.7,0.5C72.2,25.4,73.4,25.6,74.9,25.6z"/>
	<path fill-rule="evenodd" clip-rule="evenodd" fill="#A000A0" d="M24.9,25.6c1.5,0,2.7-0.2,2.7-0.5c0-0.3-1.2-0.5-2.7-0.5
		c-1.5,0-2.7,0.2-2.7,0.5C22.2,25.4,23.4,25.6,24.9,25.6z"/>
	<path fill-rule="evenodd" clip-rule="evenodd" fill="#A000A0" d="M124.9,25.6c1.5,0,2.7-0.2,2.7-0.5c0-0.3-1.2-0.5-2.7-0.5
		c-1.5,0-2.7,0.2-2.7,0.5C122.2,25.4,123.4,25.6,124.9,25.6z"/>
	<path fill-rule="evenodd" clip-rule="evenodd" fill="#A000A0" d="M18.1,176.6c0.8-0.1,0.8-1.7-0.1-1.5c-1,0.2-2.7,0.7-2.6,1
		C15.5,176.3,16.7,176.8,18.1,176.6z"/>
	<path fill-rule="evenodd" clip-rule="evenodd" fill="#A000A0" d="M68.1,176.6c0.8-0.1,0.8-1.7-0.1-1.5c-1,0.2-2.7,0.7-2.6,1
		C65.5,176.3,66.7,176.8,68.1,176.6z"/>
	<path fill-rule="evenodd" clip-rule="evenodd" fill="#A000A0" d="M118.1,176.6c0.8-0.1,0.8-1.7-0.1-1.5c-1,0.2-2.7,0.7-2.6,1
		C115.5,176.3,116.7,176.8,118.1,176.6z"/>
	<path fill-rule="evenodd" clip-rule="evenodd" fill="#A000A0" d="M132.3,126.6c-0.8-0.1-0.8-1.7,0.1-1.5c1,0.2,2.7,0.7,2.6,1
		C134.9,126.3,133.8,126.8,132.3,126.6z"/>
	<path fill-rule="evenodd" clip-rule="evenodd" fill="#A000A0" d="M82.3,126.6c-0.8-0.1-0.8-1.7,0.1-1.5c1,0.2,2.7,0.7,2.6,1
		C84.9,126.3,83.8,126.8,82.3,126.6z"/>
	<path fill-rule="evenodd" clip-rule="evenodd" fill="#A000A0" d="M32.3,126.6c-0.8-0.1-0.8-1.7,0.1-1.5c1,0.2,2.7,0.7,2.6,1
		C34.9,126.3,33.8,126.8,32.3,126.6z"/>
</g>
</svg>
